!!!OTL: Christe caelorum dominator aue - I
**kern
*staff1
=1-
*clefC3
*k[b-]
*met(c|)
*M2/2
1d
2d\
2G/
=2
1c
2B-/
1B-
2B-/
2f\
2c\
=3
1d
1A
!!linebreak:original
=4
2r
2d\
1c
2B-/
1f
2c\
=5
2d\
2A/
2B-/
2G/
1A
1d
=6
!!linebreak:original
2r
2g\
1c
2f\
1B-
2c\
=7
2G/
2d\
2e-\
2d\
1c
1B-
!!linebreak:original
=8
2r
2B-/
2f\
2g\
1d
1G
=9
2r
2B-/
2f\
2g\
1d
2G/
2c\
=10
2c\
2Bn/
2c\
0G
==
*-
!!title: @{OTL}, @{GTL}, ed. @{ENC}
!!!pag:
!!!GTL: Hymnbook D
!!!EFL: 
!!!YEM: Creative Commons CC/BY/NC/SA 4.0
!!!ENC: Marcin Konik
!!!END: 2015-0m-dd
!!!EED: Marcin Konik
!!!EEV: 
!!!ONB: Encoded in vim by Marcin Konik
!!!CharacterEncoding: utf-8
!!!RDF**kern: l=long note in original notation
!!!RDF**kern: i=editorial accidental
!!muse2ps: z14jc180F
!!!COM: Anonim
!!!CDT: [?]
!!!TXO: Polish
!!!ODT: 
!!!GTL: Hymnbook D
!!!ARL: Opactwo św. Wojciecha, Staniątki 
!!!voices:	1
